/* XPM */
static char * stick_toggled_prelight_xpm[] = {
"24 26 4 1",
" 	c None",
".	c #202326",
"+	c #c5c5c6",
"@	c #202326",
"@@@@@@@@@@@@@@@@@@@@@@@@",
"........................",
"........................",
"........................",
"........................",
"........................",
"........................",
"........................",
"........................",
"...........++...........",
".........++++++.........",
".........++..++.........",
"........++....++........",
"........++....++........",
".........++..++.........",
".........++++++.........",
"...........++...........",
"........................",
"........................",
"........................",
"........................",
"........................",
"........................",
"........................",
"........................",
"........................"};
